assets/images/wonderproxy-white.svg

<svg height="79" viewBox="0 0 583 79" width="583" xmlns="http://www.w3.org/2000/svg"><g fill="#fff" fill-rule="evenodd"><path d="m204.774479 14-9.124361 32.7802404h-.153673l-11.02607-32.7802404h-9.94075l-11.02607 32.7802404h-.144069l-9.133965-32.7802404h-13.225521l17.173007 51h10.007983l11.246976-33.0771976h.144068l11.25658 33.0771976h10.007983l17.163403-51z"/><path d="m231.966299 30c-10.908029 0-18.966299 7.1672902-18.966299 18s8.05827 18 18.966299 18c10.98505 0 19.033692-7.1672902 19.033692-18 .009628-10.8327098-8.048642-18-19.033692-18zm0 25.89845c-4.390169 0-7.904229-3.0689471-7.904229-7.89845s3.51406-7.89845 7.904229-7.89845c4.467189 0 7.904229 3.0689471 7.904229 7.89845s-3.43704 7.89845-7.904229 7.89845z" fill-rule="nonzero"/><path d="m277.177643 30c-4.784173 0-8.764527 2.2767365-11.12756 6.241731h-.145268v-5.1323043h-10.904815v33.8905733h11.127559v-17.0272878c0-6.0198456 2.798838-8.2194046 6.556448-8.2194046 4.125622 0 6.26591 2.2767365 6.26591 7.3415105v17.9051819h11.050083v-20.9826351c0-9.6857772-5.307139-14.0173649-12.822357-14.0173649z"/><path d="m320.024133 35.8881942h-.143288c-2.111111-3.4233174-5.521368-5.6704671-10.966315-5.6704671-8.721468 0-15.91453 6.1103347-15.91453 17.8911365 0 11.7808017 7.193062 17.8911364 15.91453 17.8911364 5.444947 0 8.864756-2.256712 10.966315-5.6704671h.143288v4.5803604h10.975867v-50.9098933h-10.975867zm-8.062343 20.0713497c-4.355958 0-7.699347-3.0503861-7.699347-7.8506803 0-4.8002943 3.343389-7.8506804 7.699347-7.8506804 4.432378 0 7.775767 3.0503861 7.775767 7.8506804 0 4.8002942-3.343389 7.8506803-7.775767 7.8506803z" fill-rule="nonzero"/><path d="m353.538633 30c-10.20567 0-17.538633 6.6698795-17.538633 18.1108434 0 10.7759036 7.399111 17.8891566 18.5403 17.8891566 5.679266 0 10.20567-1.7638554 13.730406-3.9614458l-3.949972-8.3566265c-2.078933 1.3975904-5.603669 3.0746988-9.629239 3.0746988-4.460255 0-7.758199-1.9084337-8.485825-6.1590361h23.79433v-2.4963856c0-12.2313253-6.473041-18.1012048-16.461367-18.1012048zm-7.257366 14.0819277c.500834-4.3951807 3.231796-6.2361446 6.898277-6.2361446 3.524736 0 6.1801 2.2746988 6.321846 6.2361446z" fill-rule="nonzero"/><path d="m384.78728 38.7183099h-.141814v-6.7136151h-10.645466v32.9953052h10.853459v-12.1408451c0-8.4225352 2.949721-11.0704225 10.210572-11.0704225h.935969v-10.7887324h-.217447c-5.2471 0-9.057155 2.2910798-10.995273 7.7183099z"/><path d="m419.203157 14h-18.203157v51h11.289596v-17.4917355h6.923137c12.888716 0 18.787267-7.2131856 18.787267-17.1947784-.009576-9.1769346-5.908126-16.3134861-18.796843-16.3134861zm-.947981 23.3159279h-5.975155v-13.0469572h5.975155c4.663302 0 7.717909 1.8200601 7.717909 6.2648385 0 4.5214124-3.054607 6.7821187-7.717909 6.7821187z" fill-rule="nonzero"/><path d="m452.782646 38.7183099h-.141753v-6.7136151h-10.640893v32.9953052h10.858247v-12.1408451c0-8.4225352 2.948454-11.0704225 10.206186-11.0704225h.935567v-10.7887324h-.217354c-5.244845 0-9.053265 2.2910798-11 7.7183099z"/><path d="m483.961499 30c-10.905268 0-18.961499 7.1672902-18.961499 18s8.056231 18 18.961499 18c10.98227 0 19.038501-7.1672902 19.038501-18-.009625-10.8327098-8.056231-18-19.038501-18zm0 25.89845c-4.389057 0-7.902228-3.0689471-7.902228-7.89845s3.513171-7.89845 7.902228-7.89845c4.466059 0 7.902229 3.0689471 7.902229 7.89845s-3.43617 7.89845-7.902229 7.89845z" fill-rule="nonzero"/><path d="m540.773181 32h-12.658107l-6.077033 8.7148549-6.153115-8.7148549h-12.658107l12.154065 15.7111554-13.380884 17.2888446h12.582026l7.456015-10.2831531 7.370423 10.2831531h12.591536l-13.380884-17.2888446z"/><path d="m571.869233 31-8.357638 18.485005-7.860388-18.485005h-12.651207l15.051399 30.3062562-8.434139 17.6937438h11.054268l22.328472-48z"/><g fill-rule="nonzero"><path d="m33.7039515 22.5569345c0-2.3467673.2878425-4.6264842.8059589-6.8199932-9.067037-3.5440976-19.7747759-1.6666837-27.10516352 5.6513988-9.87299584 9.8564228-9.87299584 25.8431764 0 35.6995992.31662668.3256738.65244287.6321903.98825905.9291282 15.86971347 14.9714177 39.29049367 16.8584102 48.60699407 16.9829325-8.3762151-9.2529683-22.6148214-28.2378369-23.2576695-50.8817469-.0287842-.5172466-.038379-1.0344933-.038379-1.5613186zm-3.9530362 21.1400631c-2.4658503 2.461711-6.4668603 2.461711-8.9423053 0s-2.4658502-6.4560048 0-8.9272944c2.4658503-2.4617111 6.4668603-2.4617111 8.9423053 0 2.475445 2.4712896 2.475445 6.4655834 0 8.9272944z"/><path d="m40 23.2361897c0 .4017785.009559.8131232.0382359 1.2531663v.0765292.0765292c.56398 20.1558879 13.2869868 37.537591 21.1062351 46.3575856.0955898-9.8627055 2.0265045-35.4139046 18.3341299-52.6808138.3250054-.3635139.6595699-.7174616 1.0036933-1.0618432 1.108842-1.1096739 2.284597-2.0854217 3.5177058-2.9655079-3.7853574-7.94947455-11.6046057-13.58393965-20.7907886-14.2918351-12.7994786 0-23.2092114 10.4271086-23.2092114 23.2361897zm21.2496198-4.4099973c3.4794699 0 6.29937 2.8220156 6.29937 6.3040959s-2.8199001 6.304096-6.29937 6.304096-6.29937-2.8220157-6.29937-6.304096 2.8199001-6.3040959 6.29937-6.3040959z"/><path d="m99.7447167 15c-5.7331777.0094503-11.1240762 2.2397228-15.1838887 6.2750039-.2567094.2551583-.5324344.5386675-.7986516.8410774l-.0475388.0472515-.0475388.0472515c-14.0524655 14.7897307-16.3723583 36.9034494-16.6670988 46.8168216v5.9725941c10.0496996-.3024098 31.7464022-2.6838872 46.683089-16.7175933.332772-.2929595.656035-.6048197.979299-.9166798 9.783483-9.7243661 9.783483-25.4969287 0-35.2212947-4.183413-4.1581351-9.469726-6.5396125-14.9176713-7.1444322zm1.6258263 29.1447472c-2.4434934 2.4287289-6.4082283 2.4287289-8.8612297 0-2.4434937-2.4287289-2.4434937-6.369507 0-8.8076862 2.4434936-2.428729 6.4082285-2.428729 8.8612297 0 2.443494 2.4381792 2.443494 6.3789573 0 8.8076862z"/></g></g></svg>

<?xml version="1.0" encoding="UTF-8"?>
<svg width="583px" height="79px" viewBox="0 0 583 79" version="1.1" xmlns="http://www.w3.org/2000/svg" xmlns:xlink="http://www.w3.org/1999/xlink">
    <!-- Generator: Sketch 52.6 (67491) - http://www.bohemiancoding.com/sketch -->
    <title>wp-logo-full-black</title>
    <desc>Created with Sketch.</desc>
    <g id="Page-1" stroke="none" stroke-width="1" fill="none" fill-rule="evenodd">
        <g id="Artboard" transform="translate(-14.000000, -13.000000)" fill="#FFFFFF">
            <g id="wp-logo-full-black" transform="translate(14.000000, 13.000000)">
                <polygon id="Path" points="204.774479 14 195.650118 46.7802404 195.496445 46.7802404 184.470375 14 174.529625 14 163.503555 46.7802404 163.359486 46.7802404 154.225521 14 141 14 158.173007 65 168.18099 65 179.427966 31.9228024 179.572034 31.9228024 190.828614 65 200.836597 65 218 14"></polygon>
                <path d="M231.966299,30 C221.05827,30 213,37.1672902 213,48 C213,58.8327098 221.05827,66 231.966299,66 C242.951349,66 250.999991,58.8327098 250.999991,48 C251.009619,37.1672902 242.951349,30 231.966299,30 Z M231.966299,55.89845 C227.57613,55.89845 224.06207,52.8295029 224.06207,48 C224.06207,43.1704971 227.57613,40.10155 231.966299,40.10155 C236.433488,40.10155 239.870528,43.1704971 239.870528,48 C239.870528,52.8295029 236.433488,55.89845 231.966299,55.89845 Z" id="Shape" fill-rule="nonzero"></path>
                <path d="M277.177643,30 C272.39347,30 268.413116,32.2767365 266.050083,36.241731 L265.904815,36.241731 L265.904815,31.1094267 L255,31.1094267 L255,65 L266.127559,65 L266.127559,47.9727122 C266.127559,41.9528666 268.926397,39.7533076 272.684007,39.7533076 C276.809629,39.7533076 278.949917,42.0300441 278.949917,47.0948181 L278.949917,65 L290,65 L290,44.0173649 C290,34.3315877 284.692861,30 277.177643,30 Z" id="Path"></path>
                <path d="M320.024133,35.8881942 L319.880845,35.8881942 C317.769734,32.4648768 314.359477,30.2177271 308.91453,30.2177271 C300.193062,30.2177271 293,36.3280618 293,48.1088636 C293,59.8896653 300.193062,66 308.91453,66 C314.359477,66 317.779286,63.743288 319.880845,60.3295329 L320.024133,60.3295329 L320.024133,64.9098933 L331,64.9098933 L331,14 L320.024133,14 L320.024133,35.8881942 Z M311.96179,55.9595439 C307.605832,55.9595439 304.262443,52.9091578 304.262443,48.1088636 C304.262443,43.3085693 307.605832,40.2581832 311.96179,40.2581832 C316.394168,40.2581832 319.737557,43.3085693 319.737557,48.1088636 C319.737557,52.9091578 316.394168,55.9595439 311.96179,55.9595439 Z" id="Shape" fill-rule="nonzero"></path>
                <path d="M353.538633,30 C343.332963,30 336,36.6698795 336,48.1108434 C336,58.886747 343.399111,66 354.5403,66 C360.219566,66 364.74597,64.2361446 368.270706,62.0385542 L364.320734,53.6819277 C362.241801,55.0795181 358.717065,56.7566265 354.691495,56.7566265 C350.23124,56.7566265 346.933296,54.8481928 346.20567,50.5975904 L370,50.5975904 L370,48.1012048 C370,35.8698795 363.526959,30 353.538633,30 Z M346.281267,44.0819277 C346.782101,39.686747 349.513063,37.8457831 353.179544,37.8457831 C356.70428,37.8457831 359.359644,40.1204819 359.50139,44.0819277 L346.281267,44.0819277 Z" id="Shape" fill-rule="nonzero"></path>
                <path d="M384.78728,38.7183099 L384.645466,38.7183099 L384.645466,32.0046948 L374,32.0046948 L374,65 L384.853459,65 L384.853459,52.8591549 C384.853459,44.4366197 387.80318,41.7887324 395.064031,41.7887324 L396,41.7887324 L396,31 L395.782553,31 C390.535453,31 386.725398,33.2910798 384.78728,38.7183099 Z" id="Path"></path>
                <path d="M419.203157,14 L401,14 L401,65 L412.289596,65 L412.289596,47.5082645 L419.212733,47.5082645 C432.101449,47.5082645 438,40.2950789 438,30.3134861 C437.990424,21.1365515 432.091874,14 419.203157,14 Z M418.255176,37.3159279 L412.280021,37.3159279 L412.280021,24.2689707 L418.255176,24.2689707 C422.918478,24.2689707 425.973085,26.0890308 425.973085,30.5338092 C425.973085,35.0552216 422.918478,37.3159279 418.255176,37.3159279 Z" id="Shape" fill-rule="nonzero"></path>
                <path d="M452.782646,38.7183099 L452.640893,38.7183099 L452.640893,32.0046948 L442,32.0046948 L442,65 L452.858247,65 L452.858247,52.8591549 C452.858247,44.4366197 455.806701,41.7887324 463.064433,41.7887324 L464,41.7887324 L464,31 L463.782646,31 C458.537801,31 454.729381,33.2910798 452.782646,38.7183099 Z" id="Path"></path>
                <path d="M483.961499,30 C473.056231,30 465,37.1672902 465,48 C465,58.8327098 473.056231,66 483.961499,66 C494.943769,66 503,58.8327098 503,48 C502.990375,37.1672902 494.943769,30 483.961499,30 Z M483.961499,55.89845 C479.572442,55.89845 476.059271,52.8295029 476.059271,48 C476.059271,43.1704971 479.572442,40.10155 483.961499,40.10155 C488.427558,40.10155 491.863728,43.1704971 491.863728,48 C491.863728,52.8295029 488.427558,55.89845 483.961499,55.89845 Z" id="Shape" fill-rule="nonzero"></path>
                <polygon id="Path" points="540.773181 32 528.115074 32 522.038041 40.7148549 515.884926 32 503.226819 32 515.380884 47.7111554 502 65 514.582026 65 522.038041 54.7168469 529.408464 65 542 65 528.619116 47.7111554"></polygon>
                <polygon id="Path" points="571.869233 31 563.511595 49.485005 555.651207 31 543 31 558.051399 61.3062562 549.61726 79 560.671528 79 583 31"></polygon>
                <path d="M33.7039515,22.5569345 C33.7039515,20.2101672 33.991794,17.9304503 34.5099104,15.7369413 C25.4428734,12.1928437 14.7351345,14.0702576 7.40474688,21.3883401 C-2.46824896,31.2447629 -2.46824896,47.2315165 7.40474688,57.0879393 C7.72137356,57.4136131 8.05718975,57.7201296 8.39300593,58.0170675 C24.2627194,72.9884852 47.6834996,74.8754777 57,75 C48.6237849,65.7470317 34.3851786,46.7621631 33.7423305,24.1182531 C33.7135463,23.6010065 33.7039515,23.0837598 33.7039515,22.5569345 Z M29.7509153,43.6969976 C27.285065,46.1587086 23.284055,46.1587086 20.80861,43.6969976 C18.333165,41.2352866 18.3427598,37.2409928 20.80861,34.7697032 C23.2744603,32.3079921 27.2754703,32.3079921 29.7509153,34.7697032 C32.2263603,37.2409928 32.2263603,41.2352866 29.7509153,43.6969976 Z" id="Shape" fill-rule="nonzero"></path>
                <path d="M40,23.2361897 C40,23.6379682 40.009559,24.0493129 40.0382359,24.489356 L40.0382359,24.5658852 L40.0382359,24.6424144 C40.6022159,44.7983023 53.3252227,62.1800054 61.144471,71 C61.2400608,61.1372945 63.1709755,35.5860954 79.4786009,18.3191862 C79.8036063,17.9556723 80.1381708,17.6017246 80.4822942,17.257343 C81.5911362,16.1476691 82.7668912,15.1719213 84,14.2918351 C80.2146426,6.34236055 72.3953943,0.707895446 63.2092114,0 C50.4097328,0 40,10.4271086 40,23.2361897 Z M61.2496198,18.8261924 C64.7290897,18.8261924 67.5489898,21.648208 67.5489898,25.1302883 C67.5489898,28.6123686 64.7290897,31.4343843 61.2496198,31.4343843 C57.7701499,31.4343843 54.9502498,28.6123686 54.9502498,25.1302883 C54.9502498,21.648208 57.7701499,18.8261924 61.2496198,18.8261924 Z" id="Shape" fill-rule="nonzero"></path>
                <path d="M99.7447167,15 C94.011539,15.0094503 88.6206405,17.2397228 84.560828,21.2750039 C84.3041186,21.5301622 84.0283936,21.8136714 83.7621764,22.1160813 L83.7146376,22.1633328 L83.6670988,22.2105843 C69.6146333,37.000315 67.2947405,59.1140337 67,69.0274059 L67,75 C77.0496996,74.6975902 98.7464022,72.3161128 113.683089,58.2824067 C114.015861,57.9894472 114.339124,57.677587 114.662388,57.3657269 C124.445871,47.6413608 124.445871,31.8687982 114.662388,22.1444322 C110.478975,17.9862971 105.192662,15.6048197 99.7447167,15 Z M101.370543,44.1447472 C98.9270496,46.5734761 94.9623147,46.5734761 92.5093133,44.1447472 C90.0658196,41.7160183 90.0658196,37.7752402 92.5093133,35.337061 C94.9528069,32.908332 98.9175418,32.908332 101.370543,35.337061 C103.814037,37.7752402 103.814037,41.7160183 101.370543,44.1447472 Z" id="Shape" fill-rule="nonzero"></path>
            </g>
        </g>
    </g>
</svg>
